map_marker_monochrome/openmoji_passenger_ship.svg

<svg xmlns="http://www.w3.org/2000/svg" width="24" height="24" viewBox="0 0 24 24"> <g transform="scale(0.333333333)">  <g id="line">
    <path fill="none" stroke="#000000" stroke-linecap="round" stroke-linejoin="round" stroke-miterlimit="10" stroke-width="2" d="M47.4115,49.3367C48.9598,49.7227,50.4799,50,52,50c5,0,7-3,15-3"/>
    <path fill="none" stroke="#000000" stroke-linecap="round" stroke-linejoin="round" stroke-miterlimit="10" stroke-width="2" d="M5,47c3,0,9,3,15,3c1.292,0,2.4913-0.1391,3.6378-0.3574"/>
    <path fill="none" stroke="#000000" stroke-linecap="round" stroke-linejoin="round" stroke-miterlimit="10" stroke-width="2" d="M37.5,10.5v5h-4v-5c0-0.5523,0.4477-1,1-1h2C37.0523,9.5,37.5,9.9477,37.5,10.5z"/>
    <path fill="none" stroke="#000000" stroke-linecap="round" stroke-linejoin="round" stroke-miterlimit="10" stroke-width="2" d="M48.9045,31h-26.809l5.9312-14.8705c0.1516-0.3801,0.5196-0.6295,0.9288-0.6295h13.089c0.4092,0,0.7772,0.2494,0.9288,0.6295 L48.9045,31z"/>
    <path fill="none" stroke="#000000" stroke-linecap="round" stroke-linejoin="round" stroke-miterlimit="10" stroke-width="2" d="M23.6377,49.6421c-1.0449-5.989-2.7008-12.806-7.6377-14.8936h39c-8.6667,3.6647-7.2222,21.9045-10.1111,24.653 c-2.0799,1.9789-6.4133,3.4815-8.6667,4.1686c-0.2743,0.0825-0.52,0.1557-0.7222,0.2199 c-0.2022-0.0642-0.4479-0.1374-0.7222-0.2199c-2.2534-0.6871-6.5868-2.1897-8.6667-4.1686 C24.8678,58.2187,24.4272,54.1667,23.6377,49.6421"/>
    <path fill="none" stroke="#000000" stroke-linecap="round" stroke-linejoin="round" stroke-miterlimit="10" stroke-width="2" d="M55,32v2.7485H16V32c0-0.5523,0.4477-1,1-1h37C54.5523,31,55,31.4477,55,32z"/>
    <line x1="35.5" x2="35.5" y1="63.79" y2="32" fill="none" stroke="#000000" stroke-linecap="round" stroke-linejoin="round" stroke-miterlimit="10" stroke-width="2"/>
    <line x1="30" x2="41" y1="21" y2="21" fill="none" stroke="#000000" stroke-linecap="round" stroke-linejoin="round" stroke-miterlimit="10" stroke-width="2"/>
    <line x1="28" x2="43" y1="26" y2="26" fill="none" stroke="#000000" stroke-linecap="round" stroke-linejoin="round" stroke-miterlimit="10" stroke-width="2"/>
  </g></g></svg>

<svg xmlns="http://www.w3.org/2000/svg" width="24" height="24" viewBox="0 0 24 24"> <g transform="translate(0.0 1.4456248125000002) scale(0.375)">
  
  <g
     id="line"
     transform="translate(-4,-8.5)">
    <path
       fill="none"
       stroke="#000"
       stroke-linecap="round"
       stroke-linejoin="round"
       stroke-miterlimit="10"
       stroke-width="2"
       d="M 47.4115,49.3367 C 48.9598,49.7227 50.4799,50 52,50 c 5,0 7,-3 15,-3"
       id="path2" />
    <path
       fill="none"
       stroke="#000"
       stroke-linecap="round"
       stroke-linejoin="round"
       stroke-miterlimit="10"
       stroke-width="2"
       d="m 5,47 c 3,0 9,3 15,3 1.292,0 2.4913,-0.1391 3.6378,-0.3574"
       id="path4" />
    <path
       fill="none"
       stroke="#000"
       stroke-linecap="round"
       stroke-linejoin="round"
       stroke-miterlimit="10"
       stroke-width="2"
       d="m 37.5,10.5 v 5 h -4 v -5 c 0,-0.5523 0.4477,-1 1,-1 h 2 c 0.5523,0 1,0.4477 1,1 z"
       id="path6" />
    <path
       fill="none"
       stroke="#000"
       stroke-linecap="round"
       stroke-linejoin="round"
       stroke-miterlimit="10"
       stroke-width="2"
       d="M 48.9045,31 H 22.0955 L 28.0267,16.1295 C 28.1783,15.7494 28.5463,15.5 28.9555,15.5 h 13.089 c 0.4092,0 0.7772,0.2494 0.9288,0.6295 z"
       id="path8" />
    <path
       fill="none"
       stroke="#000"
       stroke-linecap="round"
       stroke-linejoin="round"
       stroke-miterlimit="10"
       stroke-width="2"
       d="M 23.6377,49.6421 C 22.5928,43.6531 20.9369,36.8361 16,34.7485 H 55 C 46.3333,38.4132 47.7778,56.653 44.8889,59.4015 42.809,61.3804 38.4756,62.883 36.2222,63.5701 35.9479,63.6526 35.7022,63.7258 35.5,63.79 35.2978,63.7258 35.0521,63.6526 34.7778,63.5701 32.5244,62.883 28.191,61.3804 26.1111,59.4015 24.8678,58.2187 24.4272,54.1667 23.6377,49.6421"
       id="path10" />
    <path
       fill="none"
       stroke="#000"
       stroke-linecap="round"
       stroke-linejoin="round"
       stroke-miterlimit="10"
       stroke-width="2"
       d="m 55,32 v 2.7485 H 16 V 32 c 0,-0.5523 0.4477,-1 1,-1 h 37 c 0.5523,0 1,0.4477 1,1 z"
       id="path12" />
    <line
       x1="35.5"
       x2="35.5"
       y1="63.790001"
       y2="32"
       fill="none"
       stroke="#000"
       stroke-linecap="round"
       stroke-linejoin="round"
       stroke-miterlimit="10"
       stroke-width="2"
       id="line14" />
    <line
       x1="30"
       x2="41"
       y1="21"
       y2="21"
       fill="none"
       stroke="#000"
       stroke-linecap="round"
       stroke-linejoin="round"
       stroke-miterlimit="10"
       stroke-width="2"
       id="line16" />
    <line
       x1="28"
       x2="43"
       y1="26"
       y2="26"
       fill="none"
       stroke="#000"
       stroke-linecap="round"
       stroke-linejoin="round"
       stroke-miterlimit="10"
       stroke-width="2"
       id="line18" />
  </g>
</g></svg>
